X: 232
T:Elment a madarka
S:Csango Hungarian singers from Fundu Racaciuni, Romania
N:not the usual tune found elsewhere for this song
Z:Jack Campin
M:3/2
L:1/4
Q:1/2=80
K:CMix
C2 DE FG|DC2- C2z |
G2 AG BA|G2 G2 z2 |
c2 BA BA|GA E D2z |
A2 GF GF|E2 E2 z2||

A tune from ancient Greece, inscribed on a stone pillar in what is now
western Turkey about 100AD:

